src/assets/seahorse.svg

<svg width="104" height="125" viewBox="0 0 104 125" fill="none" xmlns="http://www.w3.org/2000/svg">
<path d="M60.8537 39.7709C60.8537 39.7709 60.7611 41.1947 70.5795 35.6702C70.5795 35.6702 74.3933 32.8082 74.1931 38.3514C74.0934 41.0796 69.9152 44.5054 73.8173 46.8099C73.8173 46.8099 77.7634 48.3801 76.2117 52.5269C74.66 56.6738 71.6263 58.3561 74.3779 62.0923C78.0845 67.1164 78.9069 70.2965 76.3208 70.5712C73.7348 70.8459 62.4968 67.9513 62.8192 72.8031C63.4916 83.1125 60.8537 39.7709 60.8537 39.7709Z" fill="#814700"/>
<path d="M65.9631 65.7557C69.557 65.7703 71.4628 64.3227 70.8947 56.9196C70.3917 50.4806 61.2386 45.7005 61.0347 39.6603C61.0347 39.6603 60.9652 40.388 60.955 40.3853C59.9154 40.0715 59.9183 39.4953 59.887 38.6108C60.0474 37.847 60.1849 37.0881 60.3108 36.3316C60.4315 35.9828 60.5729 35.6415 60.7344 35.3096L60.3759 35.9348C62.1072 24.9005 63.0848 16.8489 56.3902 10.0029C54.7411 8.27026 52.7149 6.94096 50.4689 6.11819C48.2229 5.29543 45.8176 5.00133 43.4395 5.25874C48.8579 6.77636 54.9003 9.32708 56.1783 18.6891C57.8512 30.7609 42.8055 34.0119 37.8145 34.0532C37.8145 34.0532 32.645 53.392 44.9054 70.4209C56.4343 86.4322 85.5538 100.584 69.1807 110.217C68.3044 110.973 67.2618 111.511 66.1379 111.788C66.02 111.823 65.8933 111.85 65.7717 111.878C60.9947 112.938 56.2838 109.683 58.3584 105.912C60.4849 102.045 62.5507 105.886 63.7071 104.516C64.8634 103.145 63.1132 99.7239 59.9308 98.8802C56.7483 98.0365 50.6637 101.886 50.9482 110.234C51.2327 118.581 65.8942 127.547 76.0119 116.538C85.6467 106.067 76.4652 95.325 67.2427 82.8361C62.9208 76.9336 62.0402 74.103 62.8359 72.0892C62.769 71.0485 62.7396 65.7395 65.9631 65.7557Z" fill="#935300"/>
<path d="M17.3323 38.5359C17.3323 38.5359 17.4025 42.2226 19.679 44.1643C22.3509 46.4483 25.6933 45.4831 25.6933 45.4831C26.3389 43.8167 25.6597 40.0859 25.6597 40.0859C25.6597 40.0859 19.5594 37.297 17.3323 38.5359Z" fill="#4C1E00"/>
<path d="M47.3766 70.4428C35.1212 53.4153 37.8162 34.0481 37.8162 34.0481C34.1758 39.2575 31.1403 47.9389 33.0241 62.0467C36.9207 91.2103 62.1231 92.6683 67.6801 99.1586C71.8505 104.053 71.2591 108.798 69.162 110.207C85.5568 100.573 58.9055 86.4542 47.3766 70.4428Z" fill="#814700"/>
<path d="M43.4397 5.25853C42.9763 5.30559 42.5164 5.38236 42.0628 5.48836C42.0628 5.48836 27.9019 8.39248 26.6094 18.4088C25.317 28.4251 28.6096 28.5518 25.4194 31.6739C22.2291 34.796 19.769 36.4913 17.3298 38.5459C17.3298 38.5459 21.6451 36.8539 25.2569 44.0849C25.4516 44.5348 25.5921 45.0062 25.6756 45.4892L26.1332 44.6502C26.0018 44.9045 27.9247 40.2719 28.5444 40.003C29.7885 37.3111 31.1409 34.5167 32.3846 34.1924C33.7333 33.8409 35.7945 34.0775 38.1151 33.6303L37.8134 34.0581C42.8057 34.0117 60.6464 31.6289 58.9736 19.5571C57.6828 10.2026 51.3691 6.05739 43.4397 5.25853Z" fill="#814700"/>
<path d="M38.229 16.4228C38.6479 17.6325 38.6984 18.9393 38.3741 20.1777C38.0499 21.4161 37.3655 22.5305 36.4076 23.3797C35.4496 24.229 34.2613 24.7749 32.9929 24.9484C31.7246 25.1219 30.4333 24.9151 29.2825 24.3543C28.1317 23.7935 27.1732 22.9039 26.5283 21.798C25.8834 20.6921 25.5811 19.4198 25.6597 18.142C25.7383 16.8643 26.1943 15.6386 26.9699 14.6201C27.7455 13.6017 28.8058 12.8362 30.0167 12.4207C31.6365 11.8649 33.4106 11.974 34.9501 12.7242C36.4896 13.4745 37.6687 14.8045 38.229 16.4228Z" fill="#653200"/>
<path d="M37.5154 14.6043C37.9343 15.814 37.9847 17.1208 37.6605 18.3592C37.3363 19.5977 36.6519 20.712 35.6939 21.5613C34.736 22.4105 33.5477 22.9564 32.2793 23.1299C31.0109 23.3034 29.7196 23.0967 28.5688 22.5358C27.418 21.975 26.4595 21.0854 25.8147 19.9795C25.1698 18.8737 24.8675 17.6013 24.9461 16.3236C25.0247 15.0458 25.4806 13.8201 26.2562 12.8017C27.0318 11.7832 28.0922 11.0178 29.303 10.6023C30.9228 10.045 32.6975 10.1534 34.2374 10.9038C35.7772 11.6542 36.9563 12.9852 37.5154 14.6043Z" fill="#935300"/>
<path d="M50.8527 25.1474C50.5588 26.3925 49.9023 27.5224 48.9663 28.3944C48.0303 29.2664 46.8567 29.8412 45.594 30.0463C44.3313 30.2514 43.0361 30.0775 41.8722 29.5465C40.7083 29.0156 39.728 28.1515 39.0552 27.0635C38.3824 25.9754 38.0472 24.7123 38.0922 23.4339C38.1372 22.1554 38.5602 20.919 39.3078 19.8809C40.0554 18.8428 41.094 18.0497 42.2923 17.6018C43.4906 17.1539 44.7947 17.0714 46.0399 17.3647C46.8671 17.5595 47.6477 17.9154 48.3373 18.412C49.0269 18.9086 49.6119 19.5362 50.0588 20.259C50.5057 20.9817 50.8059 21.7854 50.9421 22.6242C51.0783 23.463 51.048 24.3204 50.8527 25.1474Z" fill="#653200"/>
<path d="M51.5935 22.8419C51.2995 24.0872 50.6429 25.2173 49.7066 26.0894C48.7703 26.9614 47.5965 27.5362 46.3335 27.7411C45.0705 27.946 43.7751 27.7717 42.6112 27.2403C41.4473 26.709 40.4671 25.8443 39.7945 24.7558C39.122 23.6674 38.7874 22.4039 38.833 21.1252C38.8786 19.8465 39.3024 18.6101 40.0508 17.5723C40.7991 16.5345 41.8385 15.7419 43.0373 15.2948C44.2361 14.8477 45.5406 14.7662 46.7858 15.0605C48.4551 15.4551 49.8993 16.4965 50.8008 17.9557C51.7024 19.4149 51.9875 21.1725 51.5935 22.8419Z" fill="#935300"/>
<path d="M35.8137 15.5387C36.1013 16.3718 36.1354 17.2715 35.9117 18.124C35.688 18.9766 35.2165 19.7436 34.5569 20.3282C33.8973 20.9128 33.0791 21.2886 32.2059 21.4082C31.3327 21.5279 30.4436 21.3859 29.6511 21.0002C28.8585 20.6145 28.1982 20.0025 27.7535 19.2415C27.3088 18.4805 27.0997 17.6048 27.1527 16.725C27.2057 15.8452 27.5184 15.0009 28.0512 14.2988C28.5841 13.5967 29.3131 13.0684 30.1462 12.7806C30.6995 12.5896 31.2849 12.5093 31.8692 12.5445C32.4534 12.5797 33.0249 12.7297 33.5512 12.9858C34.0775 13.2419 34.5482 13.5992 34.9364 14.0372C35.3245 14.4752 35.6227 14.9854 35.8137 15.5387Z" fill="white"/>
<path d="M31.7112 18.674C31.8041 18.9469 31.8142 19.2411 31.7401 19.5197C31.666 19.7983 31.511 20.0486 31.2948 20.2392C31.0786 20.4298 30.8107 20.5521 30.5251 20.5907C30.2394 20.6292 29.9487 20.5823 29.6897 20.4558C29.4307 20.3293 29.2149 20.1289 29.0696 19.88C28.9244 19.631 28.8561 19.3446 28.8734 19.0569C28.8908 18.7691 28.9929 18.493 29.167 18.2633C29.3411 18.0335 29.5794 17.8605 29.8517 17.766C30.0334 17.703 30.2258 17.6765 30.4177 17.6881C30.6097 17.6997 30.7974 17.749 30.9702 17.8334C31.143 17.9178 31.2974 18.0355 31.4246 18.1798C31.5518 18.324 31.6491 18.492 31.7112 18.674Z" fill="black"/>
<path d="M49.6732 22.7124C49.4705 23.5699 49.0181 24.348 48.3733 24.9484C47.7285 25.5489 46.9201 25.9447 46.0504 26.0859C45.1807 26.227 44.2887 26.1073 43.4871 25.7417C42.6854 25.376 42.0101 24.781 41.5465 24.0317C41.0829 23.2825 40.8518 22.4126 40.8825 21.532C40.9131 20.6515 41.2041 19.7998 41.7186 19.0845C42.2331 18.3693 42.9481 17.8226 43.7732 17.5136C44.5984 17.2045 45.4965 17.147 46.3543 17.3483C47.5056 17.6199 48.5019 18.3374 49.1242 19.3433C49.7466 20.3492 49.9441 21.561 49.6732 22.7124Z" fill="white"/>
<path d="M44.5163 23.8105C44.4504 24.0927 44.3022 24.349 44.0906 24.547C43.8789 24.745 43.6132 24.8757 43.3272 24.9226C43.0412 24.9695 42.7477 24.9305 42.4839 24.8104C42.2201 24.6904 41.9978 24.4948 41.8452 24.2484C41.6926 24.002 41.6166 23.7159 41.6268 23.4262C41.6369 23.1366 41.7327 22.8565 41.9022 22.6213C42.0716 22.3862 42.307 22.2066 42.5786 22.1053C42.8501 22.0041 43.1456 21.9856 43.4276 22.0524C43.6148 22.096 43.7914 22.1761 43.9475 22.2882C44.1036 22.4002 44.236 22.542 44.3372 22.7053C44.4383 22.8687 44.5062 23.0504 44.537 23.24C44.5677 23.4297 44.5607 23.6236 44.5163 23.8105Z" fill="black"/>
<path d="M34.2685 41.6217C33.6298 45.0096 33.3148 48.4506 33.3275 51.8981C33.3048 55.3073 33.5854 58.7117 34.166 62.0711C34.7307 65.3949 35.6347 68.6521 36.8639 71.7914C38.1044 74.8843 39.8003 77.7744 41.8954 80.3658C43.9803 82.973 46.425 85.2708 49.1562 87.1903C50.5206 88.1758 51.9441 89.0767 53.4188 89.8878L54.5437 90.5015L55.1158 90.8135L55.6434 91.0867L57.9724 92.1985C61.1335 93.6898 64.2841 95.4723 66.8799 97.9651C68.1834 99.2114 69.2405 100.692 69.9961 102.33C70.3423 103.146 70.584 104.002 70.7157 104.879C70.8465 105.748 70.8425 106.632 70.7039 107.499C70.655 105.792 70.1702 104.126 69.2954 102.659C68.4181 101.234 67.2885 99.9816 65.9621 98.962C64.6449 97.918 63.2249 97.0108 61.7239 96.2545C60.2223 95.4776 58.6777 94.7821 57.0905 94.1463L54.6605 93.1716L54.3475 93.0358L54.0231 92.8807L53.4407 92.5878L52.2643 92.0043C50.675 91.2015 49.134 90.3065 47.649 89.3239C44.671 87.3091 42.0047 84.8683 39.7354 82.0793C37.5011 79.2566 35.7151 76.1064 34.4402 72.7397C33.8297 71.0616 33.3248 69.347 32.9284 67.6059C32.5254 65.8808 32.2274 64.133 32.0358 62.3719C31.6319 58.8624 31.6078 55.3195 31.9638 51.8048C32.2963 48.3263 33.0708 44.9044 34.2685 41.6217Z" fill="#4C1E00"/>
<path d="M42.4268 34.7569C41.9318 38.3267 41.6404 41.9217 41.554 45.5246C41.4368 49.0728 41.6279 52.6245 42.1252 56.1397C42.6805 59.5934 43.5544 62.9938 45.2174 65.9135C45.6249 66.6348 46.0744 67.3314 46.5637 67.9998C46.8097 68.3305 47.0633 68.674 47.3379 68.9577L47.7602 69.4267L48.2081 69.9024C49.4176 71.1748 50.7029 72.407 52.0165 73.614C57.2203 78.532 62.7253 83.3379 67.4544 89.0143C69.7786 91.861 71.9944 94.9572 73.1214 98.6193C73.7159 100.464 73.7687 102.44 73.2737 104.314C72.9985 105.222 72.5719 106.077 72.0119 106.843C71.4492 107.584 70.2377 109.648 69.2754 110.084C70.474 109.116 72.1493 105.812 72.3786 104.114C72.574 102.419 72.2946 100.703 71.5717 99.158C70.8725 97.5755 69.9801 96.0857 68.9149 94.7226C67.8438 93.3251 66.6983 91.9862 65.4836 90.7117C60.5899 85.564 54.9993 81.0243 49.7121 76.0084C48.4079 74.7441 47.1091 73.4593 45.8328 72.0879L45.3586 71.5673L44.8832 71.03C44.5622 70.6526 44.2554 70.2626 43.9665 69.8664C43.3921 69.0738 42.8817 68.2368 42.4402 67.3632C41.5783 65.6456 40.9092 63.838 40.4453 61.9731C39.9865 60.1499 39.6851 58.2906 39.5443 56.4158C39.2695 52.7319 39.3963 49.029 39.9226 45.3726C40.4184 41.7625 41.2569 38.2079 42.4268 34.7569Z" fill="#4C1E00"/>
<path d="M32.4331 56.929C34.2142 57.4439 36.0566 57.716 37.9105 57.738C39.7058 57.7683 41.4976 57.5722 43.2439 57.1544C45.0049 56.7275 46.7203 56.1308 48.3662 55.3728C50.0418 54.622 51.6653 53.716 53.3579 52.7953C52.1579 54.3146 50.7139 55.624 49.0848 56.67C47.4296 57.7441 45.6024 58.5264 43.6828 58.983C41.749 59.4464 39.7425 59.5222 37.7792 59.2061C35.8297 58.9238 33.9874 58.139 32.4331 56.929Z" fill="#4C1E00"/>
<path d="M33.8808 69.1764C35.8114 69.6797 37.7994 69.9294 39.7945 69.9193C41.7394 69.9142 43.6773 69.6877 45.5708 69.244C47.4749 68.7958 49.3342 68.1752 51.1256 67.3898C52.9587 66.62 54.7153 65.6833 56.5513 64.7346C53.7741 67.8933 50.082 70.1084 45.9881 71.0724C43.9259 71.55 41.7941 71.6487 39.6967 71.3634C37.6076 71.124 35.61 70.3728 33.8808 69.1764Z" fill="#4C1E00"/>
<path d="M38.7797 79.0767C40.7109 79.5774 42.6985 79.8271 44.6934 79.8196C46.6383 79.8145 48.5762 79.588 50.4698 79.1443C52.3726 78.6919 54.2315 78.0714 56.0246 77.2901C57.8576 76.5203 59.6194 75.5849 61.4502 74.6349C58.6734 77.7918 54.9837 80.0071 50.8921 80.974C48.8274 81.4543 46.693 81.5576 44.5916 81.279C42.5032 81.0318 40.5075 80.2756 38.7797 79.0767Z" fill="#4C1E00"/>
<path d="M49.7431 89.9993C51.3852 90.1985 53.0422 90.2448 54.6928 90.1377C56.2977 90.0364 57.8924 89.8104 59.4623 89.4619C61.0406 89.1073 62.5965 88.6594 64.1218 88.1206C65.6715 87.5819 67.2004 86.9561 68.8121 86.3465C67.6235 87.592 66.248 88.6447 64.7352 89.4666C63.2103 90.3054 61.5729 90.9208 59.8731 91.2941C58.1629 91.677 56.4024 91.7834 54.6585 91.6093C52.9165 91.4652 51.2328 90.9137 49.7431 89.9993Z" fill="#4C1E00"/>
<path d="M61.641 95.8195C62.6345 96.0022 63.6442 96.0823 64.6541 96.0586C65.5862 96.0401 66.5132 95.9159 67.4173 95.6885C68.341 95.4496 69.2444 95.1385 70.1194 94.7581C71.0275 94.3846 71.9643 93.9424 72.961 93.5212C72.4592 94.5006 71.7459 95.3563 70.8728 96.0263C69.9869 96.7232 68.9625 97.2232 67.868 97.4929C66.7543 97.7647 65.5913 97.763 64.4784 97.4879C63.3787 97.2491 62.3843 96.6645 61.641 95.8195Z" fill="#4C1E00"/>
<path d="M25.678 45.479C26.2927 43.3631 27.0159 41.2802 27.8447 39.2387C28.2826 38.1823 28.7461 37.1326 29.2567 36.0897C29.5069 35.5669 29.7877 35.0521 30.0954 34.5388C30.2549 34.281 30.4196 34.0244 30.6087 33.7579C30.8211 33.4498 31.0762 33.1735 31.3664 32.9371C31.4847 32.8456 31.6142 32.7696 31.7518 32.7107C31.8492 32.6714 31.9499 32.6411 32.0529 32.6202C32.1197 32.608 32.1872 32.6001 32.255 32.5966L32.4172 32.6007C32.5845 32.6061 32.7696 32.627 32.9125 32.6424L33.7663 32.75C34.2947 32.8112 34.8536 32.8804 35.3937 32.9174C36.4764 32.9982 37.563 33.0135 38.6475 32.9632C40.8258 32.8428 42.9879 32.5175 45.1051 31.9915C46.1757 31.7256 47.231 31.4556 48.2845 31.1091C49.3176 30.8071 50.3262 30.4271 51.3015 29.9721C53.2123 29.1082 54.9006 27.8197 56.2381 26.2046C57.5488 24.5408 58.3345 22.5244 58.4951 20.4124C58.6549 18.2106 58.2761 16.0031 57.3915 13.9805C58.788 15.8526 59.6076 18.0917 59.7497 20.4229C59.8046 21.6339 59.673 22.8462 59.3595 24.0172C59.035 25.2044 58.5214 26.3316 57.8384 27.3555C56.4549 29.391 54.5707 31.0361 52.3673 32.1325C51.3033 32.677 50.1976 33.1358 49.0606 33.5043C47.9532 33.8696 46.8335 34.1989 45.6951 34.4744C43.4065 35.0373 41.0618 35.3406 38.7054 35.3786C37.52 35.3867 36.3355 35.3115 35.1607 35.1537C34.5724 35.0715 33.9882 34.974 33.4207 34.8537L32.6008 34.6786L32.2593 34.5898L32.3102 34.6031L32.4062 34.5899C32.4417 34.5851 32.4761 34.5737 32.5074 34.5564C32.5498 34.5401 32.5154 34.5258 32.5074 34.5564C32.3481 34.6652 32.2056 34.7969 32.0847 34.9472C31.9233 35.1284 31.7604 35.3364 31.6076 35.547C31.2931 35.9823 30.9885 36.442 30.7094 36.9083C30.1078 37.8405 29.534 38.8125 28.9703 39.7872C27.806 41.7324 26.8272 43.5081 25.678 45.479Z" fill="#4C1E00"/>
<path d="M43.4396 5.25888C48.1795 4.73864 53.1104 6.47783 56.8347 9.61242C57.7746 10.4021 58.6405 11.2758 59.4218 12.2227C60.198 13.2174 60.8283 14.3178 61.2936 15.4907C62.1603 17.7988 62.6562 20.2295 62.763 22.6926C62.9041 25.1103 62.8506 27.5354 62.603 29.9445C62.3773 32.3405 62.0152 34.7174 61.6009 37.0645C59.4456 47.8035 62.3068 69.6657 62.7931 71.8986C63.0163 72.9916 63.3372 74.0623 63.752 75.0979C63.8494 75.3357 63.9598 75.5679 64.0828 75.7935L64.2903 76.1468L64.5193 76.522L65.4469 78.0205L69.2545 83.9961C70.5198 85.9961 71.7888 88.0024 73.0335 90.0188C74.2782 92.0351 75.4932 94.0818 76.6402 96.1599C77.2067 97.2052 77.7667 98.2543 78.287 99.3095C78.5438 99.8498 78.7828 100.396 78.9973 100.953C79.2176 101.518 79.3733 102.106 79.4612 102.706C79.0091 101.614 78.5023 100.545 77.9428 99.503C77.3389 98.4969 76.6928 97.507 76.0338 96.5247C74.7285 94.567 73.3804 92.6272 71.9896 90.7053C69.2661 86.8403 66.4693 83.0271 63.7808 79.1113L62.7726 77.63L62.5283 77.2508L62.2675 76.851C62.0936 76.5652 61.936 76.2698 61.7954 75.9662C61.2944 74.8141 60.9002 73.6185 60.6177 72.3943C60.0714 70.0423 59.662 67.6605 59.3917 65.2611C58.8486 60.5043 58.6007 55.7427 58.4804 50.9924C57.8515 45.582 60.9581 29.8651 60.7898 22.7457C60.7767 20.4689 60.4237 18.2069 59.7425 16.0345C59.3946 14.9795 58.8976 13.9796 58.2666 13.0653C57.5882 12.1501 56.8328 11.2945 56.0086 10.508C52.6369 7.22664 48.1436 5.35013 43.4396 5.25888Z" fill="#4C1E00"/>
</svg>

<svg width="104" height="125" fill="none" xmlns="http://www.w3.org/2000/svg">
  <path d="M60.85 39.77s-.09 1.42 9.73-4.1c0 0 3.81-2.86 3.61 2.68-.1 2.73-4.27 6.16-.37 8.46 0 0 3.94 1.57 2.4 5.72-1.56 4.14-4.6 5.83-1.84 9.56 3.7 5.03 4.53 8.2 1.94 8.48-2.59.28-13.82-2.62-13.5 2.23.67 10.31-1.97-33.03-1.97-33.03z" fill="#814700"/>
  <path d="M65.96 65.76c3.6.01 5.5-1.44 4.93-8.84-.5-6.44-9.65-11.22-9.86-17.26 0 0-.06.73-.08.73-1.03-.32-1.03-.9-1.06-1.78.16-.76.3-1.52.42-2.28.12-.35.26-.69.42-1.02l-.35.62C62.1 24.9 63.08 16.85 56.39 10a15.57 15.57 0 00-12.95-4.74c5.42 1.52 11.46 4.07 12.74 13.43C57.85 30.76 42.8 34 37.8 34.05c0 0-5.16 19.34 7.1 36.37 11.52 16.01 40.64 30.16 24.27 39.8a7.35 7.35 0 01-3.04 1.57l-.37.09c-4.78 1.06-9.49-2.2-7.41-5.97 2.12-3.86 4.2-.02 5.35-1.4 1.15-1.37-.6-4.79-3.78-5.63-3.18-.84-9.27 3-8.98 11.35.28 8.35 14.94 17.32 25.06 6.3 9.64-10.46.46-21.2-8.77-33.7-4.32-5.9-5.2-8.73-4.4-10.74-.07-1.04-.1-6.35 3.12-6.33z" fill="#935300"/>
  <path d="M17.33 38.54s.07 3.68 2.35 5.62c2.67 2.29 6.01 1.32 6.01 1.32.65-1.66-.03-5.4-.03-5.4s-6.1-2.78-8.33-1.54z" fill="#4C1E00"/>
  <path d="M47.38 70.44c-12.26-17.02-9.56-36.4-9.56-36.4-3.64 5.22-6.68 13.9-4.8 28 3.9 29.17 29.1 30.63 34.66 37.12 4.17 4.9 3.58 9.64 1.48 11.05 16.4-9.64-10.25-23.76-21.78-39.77z" fill="#814700"/>
  <path d="M43.44 5.26c-.46.05-.92.12-1.38.23 0 0-14.16 2.9-15.45 12.92-1.3 10.02 2 10.14-1.2 13.26-3.18 3.13-5.64 4.82-8.08 6.88 0 0 4.32-1.7 7.93 5.53.2.45.33.93.42 1.4l.45-.83c-.13.25 1.8-4.38 2.41-4.65 1.25-2.69 2.6-5.48 3.84-5.8 1.35-.36 3.41-.12 5.74-.57l-.3.43c4.99-.05 22.83-2.43 21.15-14.5-1.29-9.36-7.6-13.5-15.53-14.3z" fill="#814700"/>
  <path d="M38.23 16.42A6.47 6.47 0 1126 20.66a6.47 6.47 0 0112.22-4.24z" fill="#653200"/>
  <path d="M37.52 14.6a6.47 6.47 0 11-12.23 4.24 6.47 6.47 0 0112.23-4.24z" fill="#935300"/>
  <path d="M50.85 25.15a6.47 6.47 0 11-12.59-2.97 6.47 6.47 0 0112.6 2.97z" fill="#653200"/>
  <path d="M51.6 22.84A6.47 6.47 0 1139 19.87a6.47 6.47 0 0112.6 2.97z" fill="#935300"/>
  <path d="M35.81 15.54a4.46 4.46 0 11-8.42 2.9 4.46 4.46 0 018.42-2.9z" fill="#fff"/>
  <path d="M31.71 18.67a1.46 1.46 0 11-2.76.95 1.46 1.46 0 012.76-.95z" fill="#000"/>
  <path d="M49.67 22.71A4.46 4.46 0 1141 20.66a4.46 4.46 0 018.67 2.05z" fill="#fff"/>
  <path d="M44.52 23.81a1.46 1.46 0 11-2.86-.67 1.46 1.46 0 012.86.67z" fill="#000"/>
  <path d="M34.27 41.62a54.39 54.39 0 00-.94 10.28c-.03 3.4.26 6.81.84 10.17a49.32 49.32 0 002.7 9.72 35.25 35.25 0 0012.3 15.4c1.35.99 2.77 1.89 4.25 2.7l1.12.61.58.31.52.28 2.33 1.1c3.16 1.5 6.31 3.28 8.91 5.78a14.36 14.36 0 013.12 4.36c.34.82.58 1.67.72 2.55.13.87.12 1.75-.02 2.62a10 10 0 00-1.4-4.84c-.88-1.43-2.01-2.68-3.34-3.7a24.76 24.76 0 00-4.24-2.7 52.74 52.74 0 00-4.63-2.11l-2.43-.98-.31-.13-.33-.16-.58-.3-1.18-.58a36.75 36.75 0 01-12.53-9.92 35.04 35.04 0 01-6.8-14.47 49.13 49.13 0 01-.96-15.8c.33-3.48 1.1-6.9 2.3-10.19z" fill="#4C1E00"/>
  <path d="M42.43 34.76c-.5 3.57-.79 7.16-.88 10.76-.11 3.55.08 7.1.58 10.62.55 3.45 1.42 6.85 3.09 9.77.4.72.85 1.42 1.34 2.09.25.33.5.67.78.96l.42.47.45.47c1.2 1.27 2.5 2.5 3.8 3.71 5.21 4.92 10.72 9.73 15.44 15.4 2.33 2.85 4.54 5.95 5.67 9.6.6 1.85.65 3.83.15 5.7-.27.91-.7 1.77-1.26 2.53-.56.74-1.77 2.8-2.73 3.24 1.2-.96 2.87-4.27 3.1-5.97a9.2 9.2 0 00-.8-4.95c-.7-1.58-1.6-3.07-2.67-4.44a49.15 49.15 0 00-3.43-4C60.6 85.55 55 81.01 49.71 76c-1.3-1.27-2.6-2.55-3.88-3.92l-.47-.52-.48-.54a19.86 19.86 0 01-2.44-3.67 26.03 26.03 0 01-2-5.39 32.86 32.86 0 01-.9-5.55c-.27-3.69-.14-7.4.38-11.05.5-3.6 1.34-7.16 2.5-10.61z" fill="#4C1E00"/>
  <path d="M32.43 56.93a21.37 21.37 0 0010.81.23 28.03 28.03 0 005.13-1.79c1.67-.75 3.3-1.65 4.99-2.57a17.48 17.48 0 01-9.68 6.18c-1.93.47-3.94.54-5.9.23a11.35 11.35 0 01-5.35-2.28zM33.88 69.18c1.93.5 3.92.75 5.91.74 1.95 0 3.89-.23 5.78-.68 1.9-.44 3.76-1.06 5.56-1.85 1.83-.77 3.59-1.7 5.42-2.66A20.24 20.24 0 0146 71.07c-2.06.48-4.2.58-6.3.3-2.08-.25-4.08-1-5.8-2.2zM38.78 79.08c1.93.5 3.92.75 5.91.74 1.95 0 3.89-.23 5.78-.68 1.9-.45 3.76-1.07 5.55-1.85 1.84-.77 3.6-1.7 5.43-2.66a20.27 20.27 0 01-10.56 6.34c-2.06.48-4.2.59-6.3.3-2.09-.24-4.08-1-5.81-2.2zM49.74 90c1.65.2 3.3.24 4.95.14 1.6-.1 3.2-.33 4.77-.68 1.58-.35 3.14-.8 4.66-1.34 1.55-.54 3.08-1.16 4.7-1.77a16.57 16.57 0 01-4.08 3.12 18.18 18.18 0 01-4.87 1.82 16.4 16.4 0 01-5.21.32c-1.74-.14-3.43-.7-4.92-1.61zM61.64 95.82c1 .18 2 .26 3.01.24.94-.02 1.86-.14 2.77-.37.92-.24 1.82-.55 2.7-.93.9-.38 1.84-.82 2.84-1.24a7.93 7.93 0 01-5.1 3.97 7.1 7.1 0 01-3.38 0 5.27 5.27 0 01-2.84-1.67zM25.68 45.48a55.26 55.26 0 013.58-9.39 18.82 18.82 0 011.35-2.33c.21-.31.47-.59.76-.82a1.76 1.76 0 01.68-.32l.2-.02h.17c.16 0 .35.03.5.04l.85.11c.52.06 1.08.13 1.62.17 1.09.08 2.17.1 3.26.04 2.18-.12 4.34-.44 6.46-.97 1.07-.26 2.12-.53 3.17-.88 1.04-.3 2.05-.68 3.02-1.14 1.91-.86 3.6-2.15 4.94-3.77a10.67 10.67 0 002.26-5.79c.15-2.2-.22-4.4-1.1-6.43a12 12 0 012.35 6.44 11.46 11.46 0 01-1.91 6.93 14.34 14.34 0 01-5.47 4.78c-1.07.55-2.17 1-3.3 1.37-1.12.37-2.24.7-3.37.97-2.3.57-4.64.87-7 .9a25.33 25.33 0 01-5.28-.52l-.82-.17-.34-.09.05.01.1-.01.1-.03c.04-.02 0-.03 0 0-.16.1-.3.24-.43.39a19.03 19.03 0 00-1.38 1.96c-.6.93-1.17 1.9-1.73 2.88-1.16 1.94-2.14 3.72-3.3 5.69z" fill="#4C1E00"/>
  <path d="M43.44 5.26c4.74-.52 9.67 1.22 13.4 4.35.93.8 1.8 1.67 2.58 2.61.78 1 1.4 2.1 1.87 3.27.87 2.3 1.37 4.74 1.47 7.2.14 2.42.1 4.85-.16 7.25-.22 2.4-.58 4.78-1 7.12-2.15 10.74.7 32.6 1.2 34.84.22 1.1.54 2.16.95 3.2.1.24.21.47.33.7l.21.35.23.37.93 1.5 3.8 5.98c1.27 2 2.54 4 3.78 6.02 1.25 2.02 2.46 4.06 3.61 6.14a92.5 92.5 0 011.65 3.15c.25.54.5 1.09.7 1.64.23.57.38 1.16.47 1.76-.45-1.1-.96-2.16-1.52-3.2-.6-1.01-1.25-2-1.9-2.99a184.7 184.7 0 00-4.05-5.81c-2.72-3.87-5.52-7.68-8.2-11.6l-1.02-1.48-.24-.38-.26-.4a8.89 8.89 0 01-.47-.88c-.5-1.16-.9-2.35-1.18-3.58a62.4 62.4 0 01-1.23-7.13c-.54-4.76-.79-9.52-.91-14.27-.63-5.4 2.48-21.12 2.31-28.24a22.87 22.87 0 00-1.05-6.72 11.65 11.65 0 00-1.47-2.96A19.98 19.98 0 0056 10.5a18.54 18.54 0 00-12.57-5.25z" fill="#4C1E00"/>
</svg>
